src/images/znak.svg

<?xml version="1.0" encoding="utf-8"?>
<!-- Generator: Adobe Illustrator 24.0.1, SVG Export Plug-In . SVG Version: 6.00 Build 0)  -->
<svg version="1.1" id="Warstwa_1" xmlns="http://www.w3.org/2000/svg" xmlns:xlink="http://www.w3.org/1999/xlink" x="0px" y="0px"
	 viewBox="0 0 285.32 342.2" style="enable-background:new 0 0 285.32 342.2;" xml:space="preserve">
<g>
	<g>
		<g>
			<g>
				<path d="M124.08,103.66c2.38,0,4.27,1.89,4.27,4.28c0,2.32-1.89,4.27-4.27,4.27c-2.38,0-4.27-1.96-4.27-4.27
					c0-0.12,0-0.24,0-0.31c0.18-6.9,5.8-12.39,12.7-12.39c7.02,0,12.7,5.68,12.7,12.7c0,3.6-1.53,6.84-3.91,9.16l-10.44,10.01
					c-0.61,0.61-1.04,1.53-1.04,2.44c0,1.89,1.53,3.48,3.42,3.48c0.92,0,1.95-0.49,2.38-0.86v0.49c-1.22,0.79-2.69,1.22-4.21,1.22
					c-4.4,0-7.93-3.54-7.93-7.93c0-2.2,0.91-4.22,2.32-5.68l15.5-14.89c0.73-0.8,1.22-1.83,1.22-2.99c0-1.22-0.49-2.26-1.22-3.05
					c-2.26-2.26-5.37-3.66-8.79-3.66c-5.98,0-10.99,4.34-12.09,10.01C121.21,104.46,122.56,103.66,124.08,103.66z M131.35,136.26
					c-2.32,0-4.27,1.89-4.27,4.28c0,2.32,1.96,4.27,4.27,4.27c2.38,0,4.27-1.95,4.27-4.27
					C135.62,138.15,133.72,136.26,131.35,136.26z M131.35,136.26c-2.32,0-4.27,1.89-4.27,4.28c0,2.32,1.96,4.27,4.27,4.27
					c2.38,0,4.27-1.95,4.27-4.27C135.62,138.15,133.72,136.26,131.35,136.26z"/>
			</g>
		</g>
		<g>
			<g>
				<path d="M122.31,149.21c-0.73-0.06-1.16,0.37-1.04,1.04c0.31,3.05,0.92,5.43,2.2,6.77c0.92,0.98,4.03,2.69,8.73,2.69h0.55
					c1.96,0,3.6-0.3,4.95-0.67c-4.7-4.34-9.41-9.22-15.33-9.83H122.31z M152.76,132.12c0.68,2.09,1.05,4.33,1.05,6.65
					c0,9.71-6.41,17.83-15.26,20.45c2.87,2.56,5.62,4.82,8.61,5.62c-1.1-0.73-1.83-2.08-1.83-3.49c0-2.38,1.89-4.27,4.27-4.27l0,0
					l0,0l0,0c2.38,0,4.27,1.89,4.27,4.27c0,2.32-1.89,4.28-4.27,4.28c-4.15,0-7.81-2.86-11.54-6.22c-1.77,0.48-3.6,0.72-5.56,0.72
					h-0.06c-11.79,0-21.3-9.58-21.3-21.36c0-2.32,0.37-4.56,1.05-6.65h8.9c-0.02,1.27-0.01,2.6-0.01,3.96v5.38
					c0,2.2,0,4.34,0.06,6.29c0,0.49,0.36,0.92,0.92,0.98c5.62,0.43,10.2,4.64,14.6,8.73c0.49,0.49,0.98,0.98,1.46,1.4
					c1.71-0.55,2.87-1.28,3.36-1.83c2.44-2.56,2.38-8.61,2.38-15.57v-5.38c0-1.36,0-2.69-0.01-3.96H152.76z"/>
			</g>
		</g>
	</g>
</g>
</svg>

<?xml version="1.0" encoding="UTF-8" standalone="no"?>
<!DOCTYPE svg PUBLIC "-//W3C//DTD SVG 1.1//EN" "http://www.w3.org/Graphics/SVG/1.1/DTD/svg11.dtd">
<svg width="100%" height="100%" viewBox="0 0 45 74" version="1.1" xmlns="http://www.w3.org/2000/svg" xmlns:xlink="http://www.w3.org/1999/xlink" xml:space="preserve" xmlns:serif="http://www.serif.com/" style="fill-rule:evenodd;clip-rule:evenodd;stroke-linejoin:round;stroke-miterlimit:2;">
    <g transform="matrix(1,0,0,1,-109,-93)">
        <g>
            <g>
                <g>
                    <path d="M124.08,103.66C126.46,103.66 128.35,105.55 128.35,107.94C128.35,110.26 126.46,112.21 124.08,112.21C121.7,112.21 119.81,110.25 119.81,107.94L119.81,107.63C119.99,100.73 125.61,95.24 132.51,95.24C139.53,95.24 145.21,100.92 145.21,107.94C145.21,111.54 143.68,114.78 141.3,117.1L130.86,127.11C130.25,127.72 129.82,128.64 129.82,129.55C129.82,131.44 131.35,133.03 133.24,133.03C134.16,133.03 135.19,132.54 135.62,132.17L135.62,132.66C134.4,133.45 132.93,133.88 131.41,133.88C127.01,133.88 123.48,130.34 123.48,125.95C123.48,123.75 124.39,121.73 125.8,120.27L141.3,105.38C142.03,104.58 142.52,103.55 142.52,102.39C142.52,101.17 142.03,100.13 141.3,99.34C139.04,97.08 135.93,95.68 132.51,95.68C126.53,95.68 121.52,100.02 120.42,105.69C121.21,104.46 122.56,103.66 124.08,103.66ZM131.35,136.26C129.03,136.26 127.08,138.15 127.08,140.54C127.08,142.86 129.04,144.81 131.35,144.81C133.73,144.81 135.62,142.86 135.62,140.54C135.62,138.15 133.72,136.26 131.35,136.26ZM131.35,136.26C129.03,136.26 127.08,138.15 127.08,140.54C127.08,142.86 129.04,144.81 131.35,144.81C133.73,144.81 135.62,142.86 135.62,140.54C135.62,138.15 133.72,136.26 131.35,136.26Z" style="fill-rule:nonzero;"/>
                </g>
            </g>
            <g>
                <g>
                    <path d="M122.31,149.21C121.58,149.15 121.15,149.58 121.27,150.25C121.58,153.3 122.19,155.68 123.47,157.02C124.39,158 127.5,159.71 132.2,159.71L132.75,159.71C134.71,159.71 136.35,159.41 137.7,159.04C133,154.7 128.29,149.82 122.37,149.21L122.31,149.21ZM152.76,132.12C153.44,134.21 153.81,136.45 153.81,138.77C153.81,148.48 147.4,156.6 138.55,159.22C141.42,161.78 144.17,164.04 147.16,164.84C146.06,164.11 145.33,162.76 145.33,161.35C145.33,158.97 147.22,157.08 149.6,157.08C151.98,157.08 153.87,158.97 153.87,161.35C153.87,163.67 151.98,165.63 149.6,165.63C145.45,165.63 141.79,162.77 138.06,159.41C136.29,159.89 134.46,160.13 132.5,160.13L132.44,160.13C120.65,160.13 111.14,150.55 111.14,138.77C111.14,136.45 111.51,134.21 112.19,132.12L121.09,132.12C121.07,133.39 121.08,134.72 121.08,136.08L121.08,141.46C121.08,143.66 121.08,145.8 121.14,147.75C121.14,148.24 121.5,148.67 122.06,148.73C127.68,149.16 132.26,153.37 136.66,157.46C137.15,157.95 137.64,158.44 138.12,158.86C139.83,158.31 140.99,157.58 141.48,157.03C143.92,154.47 143.86,148.42 143.86,141.46L143.86,136.08C143.86,134.72 143.86,133.39 143.85,132.12L152.76,132.12Z" style="fill-rule:nonzero;"/>
                </g>
            </g>
        </g>
    </g>
</svg>
